assets/Leg/Dark/Flat/leg_flat_dark.svg

<svg width="32" height="32" viewBox="0 0 32 32" fill="none" xmlns="http://www.w3.org/2000/svg">
<path d="M23.4375 11.8125C23.4375 11.8125 14.7656 4.26563 13.3594 3.01563C11.9531 1.76562 8.14374 1.21249 6.59374 4.18749C5.04374 7.16249 6.83869 9.47196 8.03124 10.1875C11.1953 12.0859 17.9187 15.3875 18.4687 15.8125C19.3628 16.5034 17.4477 17.1106 17.1016 19.9453C16.7657 22.6963 17.6797 24.0625 17.6797 26.4766C17.6797 27.1276 17.2266 28.1094 17.2266 28.5625C17.2266 29.5067 17.8221 29.9844 18.9844 29.9844H24.9609C25.5156 29.9844 25.9375 29.6484 25.9375 29C25.9375 28.3516 25.3646 28.0443 25.0312 28.0234C24.4104 28.0234 23.4649 27.6819 22.625 27.2266C21.6914 26.7205 20.9033 26.0547 21.1562 25.1562C21.7604 23.0104 23.1625 18.1937 23.9375 16.0937C24.7812 13.7187 24.0833 12.4271 23.4375 11.8125Z" fill="#573739"/>
<path d="M19.5 29.9844C18.0384 29.571 17.7187 28.4219 18.5781 28C19.0971 27.7452 19.25 27.375 19.25 27.375C19.25 27.375 18.0781 27.1094 18.7344 26.0156C19.1005 25.4055 18.9074 24.3042 18.6976 23.1078C18.5313 22.1596 18.3546 21.1517 18.4375 20.2812C18.5211 19.403 19.0269 18.7081 19.6965 17.788C19.8808 17.5348 20.0775 17.2646 20.2812 16.9688C21.4219 15.3125 19.848 14.057 19.2812 13.75C18.9784 13.586 18.606 13.3914 18.1762 13.1667C16.4767 12.2786 13.8785 10.9208 11.125 9.125C7.67499 6.875 7.64583 3.9375 8.31249 2.5625L7.76695 2.79631C7.30964 3.13237 6.90588 3.5884 6.59374 4.18749C5.04374 7.16249 6.83869 9.47196 8.03124 10.1875C9.85139 11.2796 12.8494 12.836 15.1725 14.042C16.8878 14.9325 18.2351 15.632 18.4687 15.8125C18.8972 16.1435 18.6805 16.4554 18.3006 17.0024C17.8877 17.5968 17.2818 18.469 17.1016 19.9453C16.9081 21.5301 17.1294 22.6554 17.3518 23.7861C17.5154 24.6182 17.6797 25.4532 17.6797 26.4766C17.6797 26.8315 17.545 27.2847 17.4225 27.697C17.3203 28.041 17.2266 28.3564 17.2266 28.5625C17.2266 29.5067 17.8221 29.9844 18.9844 29.9844H19.5Z" fill="#341A1C"/>
</svg>

<svg xmlns="http://www.w3.org/2000/svg" width="32" height="32" fill="none"><path fill="#573739" d="M23.438 11.813s-8.672-7.547-10.079-8.797c-1.406-1.25-5.215-1.804-6.765 1.171-1.55 2.975.245 5.285 1.437 6 3.164 1.899 9.888 5.2 10.438 5.626.894.69-1.021 1.298-1.367 4.132-.336 2.751.578 4.117.578 6.532 0 .65-.453 1.632-.453 2.085 0 .945.595 1.422 1.757 1.422h5.977c.555 0 .977-.336.977-.984 0-.648-.573-.956-.907-.977-.62 0-1.566-.341-2.406-.796-.934-.506-1.722-1.172-1.469-2.07.604-2.147 2.007-6.963 2.782-9.063.843-2.375.145-3.667-.5-4.282Z"/><path fill="#341A1C" d="M19.5 29.984c-1.462-.413-1.781-1.562-.922-1.984.52-.255.672-.625.672-.625s-1.172-.266-.516-1.36c.366-.61.173-1.71-.036-2.907-.167-.948-.343-1.956-.26-2.827.083-.878.589-1.573 1.259-2.493.184-.253.38-.523.584-.82 1.14-1.655-.433-2.911-1-3.218-.303-.164-.675-.359-1.105-.583-1.7-.888-4.297-2.246-7.051-4.042-3.45-2.25-3.48-5.188-2.813-6.563l-.545.234a3.98 3.98 0 0 0-1.173 1.391c-1.55 2.975.245 5.285 1.437 6 1.82 1.093 4.818 2.649 7.141 3.855 1.716.89 3.063 1.59 3.297 1.77.428.332.211.643-.168 1.19-.413.595-1.02 1.467-1.2 2.943-.193 1.585.028 2.71.25 3.841.164.832.329 1.667.329 2.69 0 .355-.135.809-.258 1.221-.102.344-.195.66-.195.866 0 .944.595 1.421 1.757 1.421h.516Z"/></svg>
